Papirus/64x64/apps/com.github.artemanufrij.showmypictures.svg

<?xml version="1.0" encoding="UTF-8" standalone="no"?>
<svg
   id="_图层_1"
   version="1.1"
   viewBox="0 0 64 64" width="64" height="64"
   sodipodi:docname="com.github.artemanufrij.showmypictures.svg"
   xml:space="preserve"
   inkscape:version="1.4 (e7c3feb100, 2024-10-09)"
   xmlns:inkscape="http://www.inkscape.org/namespaces/inkscape"
   xmlns:sodipodi="http://sodipodi.sourceforge.net/DTD/sodipodi-0.dtd"
   xmlns="http://www.w3.org/2000/svg"
   xmlns:svg="http://www.w3.org/2000/svg"><sodipodi:namedview
     id="namedview26"
     pagecolor="#505050"
     bordercolor="#eeeeee"
     borderopacity="1"
     inkscape:showpageshadow="0"
     inkscape:pageopacity="0"
     inkscape:pagecheckerboard="0"
     inkscape:deskcolor="#505050"
     inkscape:zoom="10.6875"
     inkscape:cx="32"
     inkscape:cy="24.608187"
     inkscape:window-width="1920"
     inkscape:window-height="939"
     inkscape:window-x="0"
     inkscape:window-y="34"
     inkscape:window-maximized="1"
     inkscape:current-layer="_图层_1"
     showguides="true"><sodipodi:guide
       position="25.533397,50.243067"
       orientation="0,-1"
       id="guide26"
       inkscape:locked="false" /><sodipodi:guide
       position="50.579444,53.318274"
       orientation="1,0"
       id="guide27"
       inkscape:locked="false" /></sodipodi:namedview><!-- Generator: Adobe Illustrator 29.0.1, SVG Export Plug-In . SVG Version: 2.1.0 Build 192)  --><defs
     id="defs6"><style
       id="style1">
      .st0 {
        fill-opacity: .5;
      }

      .st0, .st1, .st2, .st3, .st4, .st5, .st6, .st7 {
        fill: #fff;
      }

      .st8 {
        fill: #133c9a;
      }

      .st2, .st9 {
        display: none;
      }

      .st3 {
        fill-opacity: .2;
      }

      .st4 {
        fill-opacity: .9;
      }

      .st10 {
        fill: #3370ff;
      }

      .st11 {
        fill: url(#_未命名的渐变_3);
      }

      .st12 {
        fill: url(#_未命名的渐变);
      }

      .st5 {
        fill-opacity: .3;
      }

      .st6 {
        fill-opacity: 0;
      }

      .st7 {
        fill-opacity: .7;
      }

      .st13 {
        fill: #00d6b9;
      }

      .st14 {
        fill: url(#_未命名的渐变_2);
      }
    </style><radialGradient
       id="_未命名的渐变"
       data-name="未命名的渐变"
       cx="123.9"
       cy="-40.2"
       fx="123.9"
       fy="-40.2"
       r="59.4"
       gradientTransform="translate(-26.8 25.5) scale(.6 -.7)"
       gradientUnits="userSpaceOnUse"><stop
         offset="0"
         stop-color="#db202e"
         id="stop1" /><stop
         offset="1"
         stop-color="#e01b24"
         id="stop2" /></radialGradient><radialGradient
       id="_未命名的渐变_2"
       data-name="未命名的渐变 2"
       cx="67.6"
       cy="26.8"
       fx="67.6"
       fy="26.8"
       r="105.2"
       gradientTransform="translate(-26.6 25.3) scale(.6 -.7)"
       gradientUnits="userSpaceOnUse"><stop
         offset="0"
         stop-color="#ffb648"
         id="stop3" /><stop
         offset="1"
         stop-color="#ff7800"
         stop-opacity="0"
         id="stop4" /></radialGradient><radialGradient
       id="_未命名的渐变_3"
       data-name="未命名的渐变 3"
       cx="61.7"
       cy="18.6"
       fx="61.7"
       fy="18.6"
       r="68"
       gradientTransform="translate(-26.8 25.8) scale(.6 -.7)"
       gradientUnits="userSpaceOnUse"><stop
         offset="0"
         stop-color="#c64600"
         id="stop5" /><stop
         offset="1"
         stop-color="#a51d2d"
         id="stop6" /></radialGradient></defs><path
     class="st1"
     d="M 47.5,64.1 H 13.8 C 6.2,64.1 0,57.8 0,50.3 V 13.7 C 0,6.2 6.2,0 13.7,0 H 50.3 C 57.8,0 64,6.2 64,13.7 V 50.3 C 64,57.8 57.8,64 50.3,64 h -2.9 0.1 z"
     id="path6"
     style="fill:#e4e4e4;fill-opacity:1"
     sodipodi:nodetypes="cssssssssccc" /><g
     id="g27"
     transform="matrix(1.2788304,0,0,1.1378886,-8.8757894,-4.3264081)"><path
       style="fill:#2b629b"
       d="M 51,10 H 13 v 19 h 38 z"
       id="path2" /><circle
       style="fill:#ff9600"
       cx="32"
       cy="29"
       id="ellipse2"
       r="7" /><path
       style="opacity:0.2;fill:#ffffff"
       d="m 32,22 a 7,7.0000005 0 0 0 -7,7 7,7.0000005 0 0 0 0.02344,0.541016 A 7,7.0000005 0 0 1 32,23 7,7.0000005 0 0 1 38.976562,29.458984 7,7.0000005 0 0 0 39,29 7,7.0000005 0 0 0 32,22 Z"
       id="path3" /><path
       style="fill:#0c939f"
       d="M 13,29 V 48 H 51 V 29 Z"
       id="path4" /><path
       style="opacity:0.2"
       d="m 25,30 c 0,0 0.908302,1.802658 1,3.107422 0.08215,1.167859 -1.026287,1.975484 -1,3.148437 0.03355,1.49645 2.883116,2.037128 3,3.525391 0.09051,1.149374 -2.043874,2.435208 -2,3.589844 0.05942,1.564423 2.392476,2.069524 3.148438,3.224609 0.198405,0.303145 0.479108,0.887216 0.714843,1.404297 h 5.66211 C 35.789468,47.663825 36.016074,47.300963 36,46.970703 c -0.0841,-1.725391 -0.963008,-1.691294 -1,-3.419922 -0.02206,-1.039775 0.824175,-0.772485 1,-1.783203 0.195504,-1.123985 -1.212735,-2.241534 -1,-3.359375 0.301536,-1.584268 3.851637,-1.416615 4,-3.042969 C 39.10332,34.23358 37.938168,33.719592 38,32.582031 38.064992,31.38169 39,30 39,30 Z"
       id="path5" /><path
       style="fill:#fded63"
       d="m 25,29 c 0,0 0.908302,1.802825 1,3.107589 0.08215,1.167859 -1.026287,1.975911 -1,3.148864 0.03355,1.49645 2.883116,2.036928 3,3.525191 0.09051,1.149374 -2.043874,2.435767 -2,3.590403 0.05942,1.564423 2.392203,2.068 3.148164,3.223085 C 29.552373,46.212723 30.303575,48 30.303575,48 h 4.241066 c 0,0 1.497422,-1.16428 1.455359,-2.02852 -0.0841,-1.725391 -0.963008,-1.691622 -1,-3.42025 -0.02206,-1.039775 0.824175,-0.773622 1,-1.78434 0.195504,-1.123985 -1.212735,-2.240918 -1,-3.358759 0.301536,-1.584268 3.851637,-1.417508 4,-3.043862 0.10332,-1.131654 -1.061832,-1.643917 -1,-2.781478 C 38.064992,30.38245 39,29 39,29 Z"
       id="path6-6" /><path
       style="opacity:0.2"
       d="m 16.040983,16.11933 c 0,0 1.032058,-2.429827 2.29518,-2.688385 1.058852,-0.21674 3.078895,1.187874 3.078895,1.187874 0,0 1.890458,-1.971936 3.246851,-1.562995 0.951931,0.286978 1.903348,2.313228 1.903348,2.313228 0,0 2.908903,0.08137 3.358788,1.437977 0.434229,1.309544 -1.082066,2.975206 -2.295177,3.313597 -1.191133,0.332263 -2.854992,-0.625234 -2.854992,-0.625234 0,0 -1.327747,1.414544 -2.295173,1.500514 -1.092422,0.09703 -3.190866,-1.563031 -3.190866,-1.563031 0,0 -1.539246,1.641112 -2.910977,1.312965 -1.237105,-0.296002 -2.746402,-2.056056 -2.295184,-3.376112 0.244068,-0.714056 1.959307,-1.250398 1.959307,-1.250398 z"
       id="path7" /><path
       style="fill:#ffffff"
       d="m 16.040983,15.11933 c 0,0 1.032058,-2.429827 2.29518,-2.688385 1.058852,-0.21674 3.078895,1.187874 3.078895,1.187874 0,0 1.890458,-1.971936 3.246851,-1.562995 0.951931,0.286978 1.903348,2.313228 1.903348,2.313228 0,0 2.908903,0.08137 3.358788,1.437977 0.434229,1.309544 -1.082066,2.975206 -2.295177,3.313597 -1.191133,0.332263 -2.854992,-0.625234 -2.854992,-0.625234 0,0 -1.327747,1.414544 -2.295173,1.500514 -1.092422,0.09703 -3.190866,-1.563031 -3.190866,-1.563031 0,0 -1.539246,1.641112 -2.910977,1.312965 -1.237105,-0.296002 -2.746402,-2.056056 -2.295184,-3.376112 0.244068,-0.714056 1.959307,-1.250398 1.959307,-1.250398 z"
       id="path8" /><path
       style="opacity:0.2"
       d="m 40.314475,14.06921 c -0.968498,0.281231 -1.915341,2.349317 -1.915341,2.349317 0,0 -2.532143,-0.35405 -3.085819,0.533943 -0.744315,1.193722 -0.08613,3.431595 1.170483,4.057896 0.884952,0.441027 2.766607,-1.067859 2.766607,-1.067859 0,0 2.046892,2.340366 3.298627,2.028961 1.080489,-0.268831 1.808917,-2.055659 1.808917,-2.055659 0,0 1.870831,1.766617 3.085823,1.17466 1.773405,-0.864064 2.068901,-4.377732 0.691674,-5.793207 -0.823734,-0.846596 -3.032632,0.373754 -3.032632,0.373754 0,0 -3.172191,-2.071113 -4.788339,-1.601806 z"
       id="path9" /><path
       style="fill:#ffffff"
       d="m 40.314475,13.06921 c -0.968498,0.281231 -1.915341,2.349317 -1.915341,2.349317 0,0 -2.532143,-0.35405 -3.085819,0.533943 -0.744315,1.193722 -0.08613,3.431595 1.170483,4.057896 0.884952,0.441027 2.766607,-1.067859 2.766607,-1.067859 0,0 2.046892,2.340366 3.298627,2.028961 1.080489,-0.268831 1.808917,-2.055659 1.808917,-2.055659 0,0 1.870831,1.766617 3.085823,1.17466 1.773405,-0.864064 2.068901,-4.377732 0.691674,-5.793207 -0.823734,-0.846596 -3.032632,0.373754 -3.032632,0.373754 0,0 -3.172191,-2.071113 -4.788339,-1.601806 z"
       id="path10" /><path
       style="opacity:0.1;fill:#ffffff"
       d="m 13,29 v 1 h 38 v -1 z"
       id="path11" /></g></svg>

<svg xmlns="http://www.w3.org/2000/svg" width="64" height="64" version="1">
 <rect style="opacity:0.2" width="50" height="56" x="-57" y="5" rx="2.778" ry="2.8" transform="scale(-1,1)"/>
 <rect style="fill:#e4e4e4" width="50" height="56" x="-57" y="4" rx="2.778" ry="2.8" transform="scale(-1,1)"/>
 <path style="fill:#2b629b" d="m 51,10 -38,0 0,19 38,0 z"/>
 <ellipse style="fill:#ff9600" cx="32" cy="29" rx="7" ry="7"/>
 <path style="opacity:0.2;fill:#ffffff" d="M 32 22 A 7 7.0000005 0 0 0 25 29 A 7 7.0000005 0 0 0 25.023438 29.541016 A 7 7.0000005 0 0 1 32 23 A 7 7.0000005 0 0 1 38.976562 29.458984 A 7 7.0000005 0 0 0 39 29 A 7 7.0000005 0 0 0 32 22 z"/>
 <path style="fill:#0c939f" d="m 13,29 0,19 38,0 0,-19 -38,0 z"/>
 <path style="opacity:0.2" d="M 25 30 C 25 30 25.908302 31.802658 26 33.107422 C 26.08215 34.275281 24.973713 35.082906 25 36.255859 C 25.03355 37.752309 27.883116 38.292987 28 39.78125 C 28.09051 40.930624 25.956126 42.216458 26 43.371094 C 26.05942 44.935517 28.392476 45.440618 29.148438 46.595703 C 29.346843 46.898848 29.627546 47.482919 29.863281 48 L 35.525391 48 C 35.789468 47.663825 36.016074 47.300963 36 46.970703 C 35.9159 45.245312 35.036992 45.279409 35 43.550781 C 34.97794 42.511006 35.824175 42.778296 36 41.767578 C 36.195504 40.643593 34.787265 39.526044 35 38.408203 C 35.301536 36.823935 38.851637 36.991588 39 35.365234 C 39.10332 34.23358 37.938168 33.719592 38 32.582031 C 38.064992 31.38169 39 30 39 30 L 25 30 z"/>
 <path style="fill:#fded63" d="m 25,29 c 0,0 0.908302,1.802825 1,3.107589 0.08215,1.167859 -1.026287,1.975911 -1,3.148864 0.03355,1.49645 2.883116,2.036928 3,3.525191 0.09051,1.149374 -2.043874,2.435767 -2,3.590403 0.05942,1.564423 2.392203,2.068 3.148164,3.223085 C 29.552373,46.212723 30.303575,48 30.303575,48 l 4.241066,0 c 0,0 1.497422,-1.16428 1.455359,-2.02852 -0.0841,-1.725391 -0.963008,-1.691622 -1,-3.42025 -0.02206,-1.039775 0.824175,-0.773622 1,-1.78434 0.195504,-1.123985 -1.212735,-2.240918 -1,-3.358759 0.301536,-1.584268 3.851637,-1.417508 4,-3.043862 0.10332,-1.131654 -1.061832,-1.643917 -1,-2.781478 C 38.064992,30.38245 39,29 39,29 Z"/>
 <path style="opacity:0.2" d="m 16.040983,16.11933 c 0,0 1.032058,-2.429827 2.29518,-2.688385 1.058852,-0.21674 3.078895,1.187874 3.078895,1.187874 0,0 1.890458,-1.971936 3.246851,-1.562995 0.951931,0.286978 1.903348,2.313228 1.903348,2.313228 0,0 2.908903,0.08137 3.358788,1.437977 0.434229,1.309544 -1.082066,2.975206 -2.295177,3.313597 -1.191133,0.332263 -2.854992,-0.625234 -2.854992,-0.625234 0,0 -1.327747,1.414544 -2.295173,1.500514 -1.092422,0.09703 -3.190866,-1.563031 -3.190866,-1.563031 0,0 -1.539246,1.641112 -2.910977,1.312965 -1.237105,-0.296002 -2.746402,-2.056056 -2.295184,-3.376112 0.244068,-0.714056 1.959307,-1.250398 1.959307,-1.250398 z"/>
 <path style="fill:#ffffff" d="m 16.040983,15.11933 c 0,0 1.032058,-2.429827 2.29518,-2.688385 1.058852,-0.21674 3.078895,1.187874 3.078895,1.187874 0,0 1.890458,-1.971936 3.246851,-1.562995 0.951931,0.286978 1.903348,2.313228 1.903348,2.313228 0,0 2.908903,0.08137 3.358788,1.437977 0.434229,1.309544 -1.082066,2.975206 -2.295177,3.313597 -1.191133,0.332263 -2.854992,-0.625234 -2.854992,-0.625234 0,0 -1.327747,1.414544 -2.295173,1.500514 -1.092422,0.09703 -3.190866,-1.563031 -3.190866,-1.563031 0,0 -1.539246,1.641112 -2.910977,1.312965 -1.237105,-0.296002 -2.746402,-2.056056 -2.295184,-3.376112 0.244068,-0.714056 1.959307,-1.250398 1.959307,-1.250398 z"/>
 <path style="opacity:0.2" d="m 40.314475,14.06921 c -0.968498,0.281231 -1.915341,2.349317 -1.915341,2.349317 0,0 -2.532143,-0.35405 -3.085819,0.533943 -0.744315,1.193722 -0.08613,3.431595 1.170483,4.057896 0.884952,0.441027 2.766607,-1.067859 2.766607,-1.067859 0,0 2.046892,2.340366 3.298627,2.028961 1.080489,-0.268831 1.808917,-2.055659 1.808917,-2.055659 0,0 1.870831,1.766617 3.085823,1.17466 1.773405,-0.864064 2.068901,-4.377732 0.691674,-5.793207 -0.823734,-0.846596 -3.032632,0.373754 -3.032632,0.373754 0,0 -3.172191,-2.071113 -4.788339,-1.601806 z"/>
 <path style="fill:#ffffff" d="m 40.314475,13.06921 c -0.968498,0.281231 -1.915341,2.349317 -1.915341,2.349317 0,0 -2.532143,-0.35405 -3.085819,0.533943 -0.744315,1.193722 -0.08613,3.431595 1.170483,4.057896 0.884952,0.441027 2.766607,-1.067859 2.766607,-1.067859 0,0 2.046892,2.340366 3.298627,2.028961 1.080489,-0.268831 1.808917,-2.055659 1.808917,-2.055659 0,0 1.870831,1.766617 3.085823,1.17466 1.773405,-0.864064 2.068901,-4.377732 0.691674,-5.793207 -0.823734,-0.846596 -3.032632,0.373754 -3.032632,0.373754 0,0 -3.172191,-2.071113 -4.788339,-1.601806 z"/>
 <path style="fill:#ffffff;opacity:0.1" d="M 13 29 L 13 30 L 51 30 L 51 29 L 13 29 z"/>
 <path style="fill:#ffffff;opacity:0.2" d="M 9.7773438 4 C 8.2384548 4 7 5.2495813 7 6.8007812 L 7 7.8007812 C 7 6.2495813 8.2384548 5 9.7773438 5 L 54.222656 5 C 55.761545 5 57 6.2495813 57 7.8007812 L 57 6.8007812 C 57 5.2495813 55.761545 4 54.222656 4 L 9.7773438 4 z"/>
</svg>
